fs/folder_sync_24_regular.svg

<svg viewBox="0 0 24 24" fill="none" xmlns="http://www.w3.org/2000/svg" height="1em" width="1em">
  <path d="M8.20693 4C8.66749 4 9.1153 4.14129 9.49094 4.40235L9.64734 4.5215L12.022 6.5H19.75C20.8867 6.5 21.8266 7.34297 21.9785 8.43788L21.9948 8.59595L22 8.75V11.8096C21.5557 11.3832 21.051 11.0194 20.5 10.7322V8.75C20.5 8.3703 20.2178 8.05651 19.8518 8.00685L19.75 8H12.021L9.64734 9.9785C9.29353 10.2733 8.85906 10.4515 8.40335 10.4914L8.20693 10.5L3.5 10.499V17.75C3.5 18.1297 3.78215 18.4435 4.14823 18.4932L4.25 18.5H11.3135C11.4858 19.0335 11.7253 19.5368 12.0218 20H4.25C3.05914 20 2.08436 19.0748 2.00519 17.904L2 17.75V6.25C2 5.05914 2.92516 4.08436 4.09595 4.00519L4.25 4H8.20693ZM8.20693 5.5H4.25C3.8703 5.5 3.55651 5.78215 3.50685 6.14823L3.5 6.25V8.999L8.20693 9C8.34729 9 8.4841 8.96063 8.60221 8.88738L8.68706 8.82617L10.578 7.249L8.68706 5.67383C8.57923 5.58398 8.44893 5.52664 8.31129 5.5073L8.20693 5.5ZM12 16.5C12 19.5376 14.4624 22 17.5 22C20.5376 22 23 19.5376 23 16.5C23 13.4624 20.5376 11 17.5 11C14.4624 11 12 13.4624 12 16.5ZM20.5 13C20.7761 13 21 13.2239 21 13.5V15.5C21 15.7761 20.7761 16 20.5 16H18.5C18.2239 16 18 15.7761 18 15.5C18 15.2239 18.2239 15 18.5 15H19.5003C19.0436 14.392 18.3174 14 17.5 14C16.6666 14 15.9283 14.4073 15.4733 15.036C15.3113 15.2597 14.9987 15.3098 14.775 15.1478C14.5514 14.9859 14.5013 14.6733 14.6632 14.4496C15.2982 13.5724 16.3323 13 17.5 13C18.4798 13 19.3651 13.4027 20 14.0506V13.5C20 13.2239 20.2239 13 20.5 13ZM15 18.9494V19.5C15 19.7761 14.7761 20 14.5 20C14.2239 20 14 19.7761 14 19.5V17.5C14 17.2239 14.2239 17 14.5 17H16.5C16.7761 17 17 17.2239 17 17.5C17 17.7761 16.7761 18 16.5 18H15.4998C15.9564 18.608 16.6827 19 17.5 19C18.2663 19 18.9518 18.6558 19.4112 18.1118C19.5893 17.9008 19.9048 17.8742 20.1158 18.0523C20.3268 18.2305 20.3534 18.546 20.1752 18.7569C19.534 19.5164 18.5732 20 17.5 20C16.5203 20 15.6349 19.5973 15 18.9494Z" fill="#212121"/>
</svg>

<svg viewBox="0 0 24 24" fill="none" xmlns="http://www.w3.org/2000/svg" height="1em" width="1em">
  <path d="M8.207 4c.46 0 .908.141 1.284.402l.156.12L12.022 6.5h7.728a2.25 2.25 0 0 1 2.229 1.938l.016.158.005.154v3.06a6.518 6.518 0 0 0-1.5-1.078V8.75a.75.75 0 0 0-.648-.743L19.75 8h-7.729L9.647 9.979a2.25 2.25 0 0 1-1.244.512l-.196.009-4.707-.001v7.251c0 .38.282.694.648.743l.102.007h7.063c.173.534.412 1.037.709 1.5H4.25a2.25 2.25 0 0 1-2.245-2.096L2 17.75V6.25a2.25 2.25 0 0 1 2.096-2.245L4.25 4h3.957Zm0 1.5H4.25a.75.75 0 0 0-.743.648L3.5 6.25v2.749L8.207 9a.75.75 0 0 0 .395-.113l.085-.06 1.891-1.578-1.89-1.575a.75.75 0 0 0-.377-.167L8.207 5.5ZM12 16.5a5.5 5.5 0 1 0 11 0 5.5 5.5 0 0 0-11 0Zm8.5-3.5a.5.5 0 0 1 .5.5v2a.5.5 0 0 1-.5.5h-2a.5.5 0 0 1 0-1h1a2.496 2.496 0 0 0-2-1c-.833 0-1.572.407-2.027 1.036a.5.5 0 0 1-.81-.586A3.496 3.496 0 0 1 17.5 13c.98 0 1.865.403 2.5 1.05v-.55a.5.5 0 0 1 .5-.5ZM15 18.95v.55a.5.5 0 0 1-1 0v-2a.5.5 0 0 1 .5-.5h2a.5.5 0 0 1 0 1h-1c.456.608 1.183 1 2 1 .766 0 1.452-.344 1.911-.888a.5.5 0 0 1 .764.645A3.493 3.493 0 0 1 17.5 20a3.49 3.49 0 0 1-2.5-1.05Z" fill="#212121"/>
</svg>
